!!!COM: Béla Bartók
!!!OTL: [T346_Bar-w45p28m199-206]
**kern	**dynam	**kern	**dynam	**kern	**dynam	**kern	**dynam	**kern	**dynam	**kern	**dynam	**kern	**dynam	**kern	**dynam	**kern	**dynam	**kern	**dynam	**kern	**dynam	**kern	**dynam	**kern	**dynam	**kern	**dynam	**kern	**dynam	**kern	**dynam
*grp:A	*grp:A	*grp:A	*grp:A	*grp:A	*grp:A	*grp:A	*grp:A	*grp:A	*grp:A	*grp:A	*grp:A	*grp:B	*grp:B	*grp:B	*grp:B	*grp:B	*grp:B	*grp:B	*grp:B	*grp:B	*grp:B	*grp:B	*grp:B	*grp:A	*grp:A	*grp:A	*grp:A	*grp:B	*grp:B	*grp:B	*grp:B
*part14	*	*part13	*	*part12	*	*part11	*	*part10	*	*part9	*	*part8	*part8	*part7	*part7	*part6	*part6	*part5	*part5	*part4	*	*part4	*part4	*part3	*	*part3	*	*part2	*part2	*part1	*part1
*staff16	*	*staff15	*	*staff14	*	*staff13	*	*staff12	*	*staff11	*	*staff10	*	*staff9	*	*staff8	*	*staff7	*	*staff6	*	*staff5	*	*staff4	*	*staff3	*	*staff2	*	*staff1	*
*I"Contrabass II	*	*I"Violoncello II	*	*I"Viola II	*	*I"Violin IV	*	*I"Violin III	*	*I"Contrabass I	*	*I"Violoncello I	*	*I"Viola I	*	*I"Violin II	*	*I"Violin I	*	*I"Piano	*	*	*	*I"Harp	*	*	*	*I"Bass Drum	*	*I"Snare Drum senza corda	*
*I'Cb.	*	*I'Vc.	*	*I'Vla.	*	*I'Vln. II	*	*I'Vln. I	*	*I'Cb.	*	*I'Vc.	*	*I'Vla.	*	*I'Vln. II	*	*I'Vln. I	*	*I'Pno.	*	*	*	*I'Hp.	*	*	*	*I'B. D.	*	*I'S. D.	*
*	*	*	*	*	*	*	*	*	*	*	*	*	*	*	*	*	*	*	*	*	*	*	*	*	*	*	*	*stria1	*	*stria1	*
*clefF4	*	*clefF4	*	*clefC3	*	*clefG2	*	*clefG2	*	*clefF4	*	*clefF4	*	*clefC3	*	*clefG2	*	*clefG2	*	*clefG2	*	*clefG2	*	*clefF4	*	*clefG2	*	*clefX	*	*clefX	*
*ITrd7c12	*	*	*	*	*	*	*	*	*	*ITrd7c12	*	*	*	*	*	*	*	*	*	*	*	*	*	*	*	*	*	*	*	*	*
*k[]	*	*k[]	*	*k[]	*	*k[]	*	*k[]	*	*k[]	*	*k[]	*	*k[]	*	*k[]	*	*k[]	*	*k[]	*	*k[]	*	*k[]	*	*k[]	*	*k[]	*	*k[]	*
*M2/4	*	*M2/4	*	*M2/4	*	*M2/4	*	*M2/4	*	*M2/4	*	*M2/4	*	*M2/4	*	*M2/4	*	*M2/4	*	*M2/4	*	*M2/4	*	*M2/4	*	*M2/4	*	*M2/4	*	*M2/4	*
=199	=199	=199	=199	=199	=199	=199	=199	=199	=199	=199	=199	=199	=199	=199	=199	=199	=199	=199	=199	=199	=199	=199	=199	=199	=199	=199	=199	=199	=199	=199	=199
!LO:TX:a:t=[pizz.]	!LO:DY:ed=brack	!LO:TX:a:t=[pizz.]	!LO:DY:ed=brack	!LO:TX:a:t=[pizz.]	!LO:DY:ed=brack	!LO:TX:a:t=[pizz.]	!LO:DY:ed=brack	!LO:TX:a:t=[pizz.]	!LO:DY:ed=brack	!LO:TX:a:t=[pizz.]	!LO:DY:ed=brack	!LO:TX:a:t=pizz.	!	!LO:TX:a:t=pizz.	!	!LO:TX:a:t=div. pizz.	!	!LO:TX:a:t=div. pizz.	!	!	!	!	!	!	!	!	!LO:DY:ed=brack	!	!	!LO:TX:t=[[quarter]=144]	!
!	!	!	!	!	!	!	!	!	!	!	!	!	!	!	!	!	!	!LO:TX:t=P:problem:Bartók pizz. notated by "", to be visualized	!	!	!	!	!	!	!	!	!	!	!	!	!
!	!	!	!	!	!	!	!	!	!	!	!	!	!	!	!	!	!	!	!	!	!	!	!LO:DY:t=%s secco	!	!	!	!	!	!	!LO:TX:t=[at the edge of the drum]	!
8EEEnL	p	8D-XL	p	8C#XL 8G	p	8eL	p	8anL	p	8EEnL	p	4G""	mf	4B-X""	mf	4e-X"" 4g""	mf	4b-X"" 4ee-X""	mf	4gg`	.	4bb-X` 4eee-X	f	8e-XL	.	8aL	p	[2Re/	p	4Re/	p
8EE-X	.	8BB-X	.	8A#X	.	8c#X	.	8G 8g	.	8E-X	.	.	.	.	.	.	.	.	.	.	.	.	.	8F-X	.	8B-X	.	.	.	.	.
8DD-X	.	8GG 8G	.	8An	.	8A#X	.	8e	.	8D-X	.	8r	.	8r	.	8r	.	8r	.	8r	.	8r	.	8Gn	.	8d-X	.	.	.	8r	.
8BBB-XJ	.	8EEnJ	.	8GJ	.	8AnJ	.	8c#XJ	.	8BB-XJ	.	8G""	.	8B-""	.	8e-"" 8g""	.	8b-"" 8ee-""	.	8gg`	.	8bb-` 8eee-	.	8B-XJ	.	8f-XJ	.	.	.	8Re/	.
!!LO:REH:t=200
=200	=200	=200	=200	=200	=200	=200	=200	=200	=200	=200	=200	=200	=200	=200	=200	=200	=200	=200	=200	=200	=200	=200	=200	=200	=200	=200	=200	=200	=200	=200	=200
8GGGL	.	8E-XL	.	8EL	.	8GL	.	8A#XL	.	8GGL	.	4r	.	4r	.	4r	.	4r	.	4r	.	4r	.	8d-XL	.	8gnL	.	2r	.	4r	.
8EEEn	.	8D-X	.	8C#X 8G	.	8e	.	8an	.	8EEn	.	.	.	.	.	.	.	.	.	.	.	.	.	8e-X	.	8a	.	.	.	.	.
8EE-X	.	8BB-X	.	8A#X	.	8c#X	.	8G 8g	.	8E-X	.	8GL""	.	8B-XL""	.	8e-XL"" 8g""	.	8b-XL"" 8ee-X""	.	8gg`L	.	8bb-X`L 8eee-X	.	8F-X	.	8B-X	.	.	.	4Re/	.
8DD-XJ	.	8GGJ 8G	.	8AnJ	.	8A#XJ	.	8eJ	.	8D-XJ	.	8GJ""	.	8B-J""	.	8e-J"" 8g""	.	8b-J"" 8ee-""	.	8gg`J	.	8bb-`J 8eee-	.	8GnJ	.	8d-XJ	.	.	.	.	.
=201	=201	=201	=201	=201	=201	=201	=201	=201	=201	=201	=201	=201	=201	=201	=201	=201	=201	=201	=201	=201	=201	=201	=201	=201	=201	=201	=201	=201	=201	=201	=201
8BBB-XL	.	8EEnL	.	8GL	.	8AnL	.	8c#XL	.	8BB-XL	.	4r	.	4r	.	4r	.	4r	.	4r	.	4r	.	8B-XL	.	8f-XL	.	2r	.	2r	.
8GGG	.	8E-X	.	8E	.	8G	.	8A#X	.	8GG	.	.	.	.	.	.	.	.	.	.	.	.	.	8d-X	.	8gn	.	.	.	.	.
!	!	!	!	!	!	!	!	!	!	!	!	!LO:TX:a:i:t=sempre simile	!	!LO:TX:a:i:t=sempre simile	!	!LO:TX:a:i:t=sempre simile	!	!LO:TX:a:i:t=sempre simile	!	!	!	!	!	!	!	!	!	!	!	!	!
8EEEn	.	8D-X	.	8C#X 8G	.	8e	.	8an	.	8EEn	.	8r	.	8r	.	8r	.	8r	.	8r	.	8r	.	8e-X	.	8a	.	.	.	.	.
8EE-XJ	.	8BB-XJ	.	8A#XJ	.	8c#XJ	.	8GJ 8g	.	8E-XJ	.	8G	.	8B-X	.	8e-X 8g	.	8b-X 8ee-X	.	8gg`	.	8bb-X` 8eee-X	.	8F-XJ	.	8B-XJ	.	.	.	.	.
=202	=202	=202	=202	=202	=202	=202	=202	=202	=202	=202	=202	=202	=202	=202	=202	=202	=202	=202	=202	=202	=202	=202	=202	=202	=202	=202	=202	=202	=202	=202	=202
8DD-XL	.	8GGL 8G	.	8AnL	.	8A#XL	.	8eL	.	8D-XL	.	4r	.	4r	.	4r	.	4r	.	4r	.	4r	.	8GnL	.	8d-XL	.	2r	.	2r	.
8BBB-X	.	8EEn	.	8G	.	8An	.	8c#X	.	8BB-X	.	.	.	.	.	.	.	.	.	.	.	.	.	8B-X	.	8f-X	.	.	.	.	.
!	!	!	!	!	!	!	!	!	!	!	!	!	!	!	!	!	!	!	!	!	!	!LO:TX:b:i:t=simile	!	!	!	!	!	!	!	!	!
8GGG	.	8E-X	.	8E	.	8G	.	8A#X	.	8GG	.	8F#XL	.	8AL	.	8dL 8f#X	.	8aL 8dd	.	8ff#XL	.	8aaL 8ddd	.	8d-X	.	8gn	.	.	.	.	.
8EEEnJ	.	8D-XJ	.	8C#XJ 8G	.	8eJ	.	8anJ	.	8EEnJ	.	8D#XJ	.	8F#XJ	.	8BJ 8d#X	.	8f#XJ 8b	.	8dd#XJ	.	8ff#XJ 8bb	.	8e-XJ	.	8anJ	.	.	.	.	.
=203	=203	=203	=203	=203	=203	=203	=203	=203	=203	=203	=203	=203	=203	=203	=203	=203	=203	=203	=203	=203	=203	=203	=203	=203	=203	=203	=203	=203	=203	=203	=203
8EE-XL	.	8BB-XL	.	8A#XL	.	8c#XL	.	8GL 8g	.	8E-XL	.	8r	.	8r	.	8r	.	8r	.	8r	.	8r	.	8F-XL	.	8B-XL	.	2r	.	2r	.
8DD-X	.	8GG 8G	.	8An	.	8A#X	.	8e	.	8D-X	.	4E	.	4G	.	4c 4e	.	4g 4cc	.	4ee	.	4gg 4ccc	.	8Gn	.	8d-X	.	.	.	.	.
8BBB-X	.	8EEn	.	8G	.	8An	.	8c#X	.	8BB-X	.	.	.	.	.	.	.	.	.	.	.	.	.	8B-X	.	8f-X	.	.	.	.	.
8GGGJ	.	8E-XJ	.	8EJ	.	8GJ	.	8A#XJ	.	8GGJ	.	8r	.	8r	.	8r	.	8r	.	8r	.	8r	.	8d-XJ	.	8gnJ	.	.	.	.	.
=204	=204	=204	=204	=204	=204	=204	=204	=204	=204	=204	=204	=204	=204	=204	=204	=204	=204	=204	=204	=204	=204	=204	=204	=204	=204	=204	=204	=204	=204	=204	=204
8EEEnL	.	8D-XL	.	8C#XL 8G	.	8eL	.	8anL	.	8EEnL	.	4F	.	4A-X	.	4d-X 4f	.	4a-X 4dd-X	.	4ff	.	4aa-X 4ddd-X	.	8e-XL	.	8aL	.	2r	.	2r	.
8EE-X	.	8BB-X	.	8A#X	.	8c#X	.	8G 8g	.	8E-X	.	.	.	.	.	.	.	.	.	.	.	.	.	8F-X	.	8B-X	.	.	.	.	.
8DD-X	.	8GG 8G	.	8An	.	8A#X	.	8e	.	8D-X	.	4r	.	4r	.	4r	.	4r	.	4r	.	4r	.	8Gn	.	8d-X	.	.	.	.	.
8BBB-XJ	.	8EEnJ	.	8GJ	.	8AnJ	.	8c#XJ	.	8BB-XJ	.	.	.	.	.	.	.	.	.	.	.	.	.	8B-XJ	.	8f-XJ	.	.	.	.	.
=205	=205	=205	=205	=205	=205	=205	=205	=205	=205	=205	=205	=205	=205	=205	=205	=205	=205	=205	=205	=205	=205	=205	=205	=205	=205	=205	=205	=205	=205	=205	=205
!	!	!	!	!	!	!	!	!	!	!	!	!	!	!	!	!	!	!	!	!	!	!	!	!	!	!	!	!	!	!LO:TX:t=[at the edge of the drum]	!
8GGGL	.	8E-XL	.	8EL	.	8GL	.	8A#XL	.	8GGL	.	4G	.	4B-X	.	4e-X 4g	.	4b-X 4ee-X	.	4gg	.	4bb-X 4eee-X	.	8d-XL	.	8gnL	.	[2Re/	.	4Re/	.
8EEEn	.	8D-X	.	8C#X 8G	.	8e	.	8an	.	8EEn	.	.	.	.	.	.	.	.	.	.	.	.	.	8e-X	.	8a	.	.	.	.	.
8EE-X	.	8BB-X	.	8A#X	.	8c#X	.	8G 8g	.	8E-X	.	8r	.	8r	.	8r	.	8r	.	8r	.	8r	.	8F-X	.	8B-X	.	.	.	8r	.
8DD-XJ	.	8GGJ 8G	.	8AnJ	.	8A#XJ	.	8eJ	.	8D-XJ	.	8G	.	8B-	.	8e- 8g	.	8b- 8ee-	.	8gg	.	8bb- 8eee-	.	8GnJ	.	8d-XJ	.	.	.	8Re/	.
=206	=206	=206	=206	=206	=206	=206	=206	=206	=206	=206	=206	=206	=206	=206	=206	=206	=206	=206	=206	=206	=206	=206	=206	=206	=206	=206	=206	=206	=206	=206	=206
8BBB-XL	.	8EEnL	.	8GL	.	8AnL	.	8c#XL	.	8BB-XL	.	4r	.	4r	.	4r	.	4r	.	4r	.	4r	.	8B-XL	.	8f-XL	.	2r	.	4r	.
8GGG	.	8E-X	.	8E	.	8G	.	8A#X	.	8GG	.	.	.	.	.	.	.	.	.	.	.	.	.	8d-X	.	8gn	.	.	.	.	.
8EEEn	.	8D-X	.	8C#X 8G	.	8e	.	8an	.	8EEn	.	8GL	.	8B-XL	.	8e-XL 8g	.	8b-XL 8ee-X	.	8ggL	.	8bb-XL 8eee-X	.	8e-X	.	8a	.	.	.	4Re/	.
8EE-XJ	.	8BB-XJ	.	8A#XJ	.	8c#XJ	.	8GJ 8g	.	8E-XJ	.	8GJ	.	8B-J	.	8e-J 8g	.	8b-J 8ee-	.	8ggJ	.	8bb-J 8eee-	.	8F-XJ	.	8B-XJ	.	.	.	.	.
=	=	=	=	=	=	=	=	=	=	=	=	=	=	=	=	=	=	=	=	=	=	=	=	=	=	=	=	=	=	=	=
*-	*-	*-	*-	*-	*-	*-	*-	*-	*-	*-	*-	*-	*-	*-	*-	*-	*-	*-	*-	*-	*-	*-	*-	*-	*-	*-	*-	*-	*-	*-	*-
!!!system-decoration: [(s1,s2)][({(s3,s4)})][({(s5,s6)})][(s7,s8,s9,s10,s11)][(s12,s13,s14,s15,s16)]
!!!EED: Daniel Wright
!!!EEV: 2021/07/14
!!!EED2: Jason Lee
!!!EEV2: 2022/02/04
